X: 02126
T: TALLY HO THE FOX
C: Bob McQuillen Nov'75
B: Bob's Note Book 1&2 #126
%R: jig
Z: 2019 John Chambers <jc:trillian.mit.edu>
M: 6/8
L: 1/8
K: D
A \
| d2d AFA | def d2a | g2a fed | e2a ABc |\
| d2d AFA | def def | gab agf | edc d2 :|
|: f \
| a2f def | e2a A2f | a2a bag | fga gfe |\
| d2e fed | e2f gfe | f2g agf | e2a d2 :|
%%begintext align
%% For Tally Ravlin,
%% with love always to
%% a very favorite fox.
%%endtext
